assets/icons/external-link-baseline.svg

<svg class="ucla-icon external-link-baseline" width="24" height="24" viewBox="0 0 24 24" aria-labelledby="icon-external-link-baseline" role="img"><title id="icon-external-link-baseline">Icon External Link Baseline</title><g fill="none" fill-rule="evenodd"><path d="M15 13v3H6V7h3V4h9v9h-3zm-1.5 0H9V8.5H7.5v6h6V13zm-3-7.5v6h6v-6h-6z" id="Combined-Shape" fill="#000"/></g></svg>

<?xml version="1.0" encoding="UTF-8"?>
<svg width="24px" height="24px" viewBox="0 0 24 24" version="1.1" xmlns="http://www.w3.org/2000/svg" xmlns:xlink="http://www.w3.org/1999/xlink">
    <!-- Generator: Sketch 53.2 (72643) - https://sketchapp.com -->
    <title>Icon/External Link Baseline</title>
    <desc>Created with Sketch.</desc>
    <g id="Icon/External-Link-Baseline" stroke="none" stroke-width="1" fill="none" fill-rule="evenodd">
        <path d="M15,13 L15,16 L6,16 L6,7 L9,7 L9,4 L18,4 L18,13 L15,13 Z M13.5,13 L9,13 L9,8.5 L7.5,8.5 L7.5,14.5 L13.5,14.5 L13.5,13 Z M10.5,5.5 L10.5,11.5 L16.5,11.5 L16.5,5.5 L10.5,5.5 Z" id="Combined-Shape" fill="#000000"></path>
    </g>
</svg>
